src/icons/export.react.svg

<svg width="24" height="24" viewBox="0 0 24 24" fill="none" xmlns="http://www.w3.org/2000/svg">
<path d="M17.25 14.625V17.25H6.75V14.625H5V17.25C5.00138 17.7137 5.1862 18.158 5.51409 18.4859C5.84198 18.8138 6.2863 18.9986 6.75 19H17.25C17.7137 18.9986 18.158 18.8138 18.4859 18.4859C18.8138 18.158 18.9986 17.7137 19 17.25V14.625H17.25ZM7.625 9.375L8.85875 10.6087L11.125 8.35125V15.5H12.875V8.35125L15.1413 10.6087L16.375 9.375L12 5L7.625 9.375Z" fill="#6667AB"/>
</svg>

<svg id="Слой_1" data-name="Слой 1" xmlns="http://www.w3.org/2000/svg" viewBox="0 0 14 14"><path d="M17.25,14.62v2.63H6.75V14.62H5v2.63A1.74,1.74,0,0,0,6.75,19h10.5A1.74,1.74,0,0,0,19,17.25V14.62ZM7.62,9.38l1.24,1.23,2.26-2.26V15.5h1.76V8.35l2.26,2.26,1.24-1.23L12,5Z" transform="translate(-5 -5)" fill="#6667ab"/></svg>
